img/profile/password.svg

<svg width="24" height="24" viewBox="0 0 24 24" fill="none" xmlns="http://www.w3.org/2000/svg">
<g clip-path="url(#clip0_811_2987)">
<path d="M6.5998 8.7999V7.88562C6.5998 4.84671 9.00838 2.3999 11.9998 2.3999C14.9912 2.3999 17.3998 4.84671 17.3998 7.88562V8.7999M6.5998 8.7999C5.6098 8.7999 4.7998 9.62276 4.7998 10.6285V19.7713C4.7998 20.777 5.6098 21.5999 6.5998 21.5999H17.3998C18.3898 21.5999 19.1998 20.777 19.1998 19.7713V10.6285C19.1998 9.62276 18.3898 8.7999 17.3998 8.7999M6.5998 8.7999H17.3998M11.9998 13.3713C12.9898 13.3713 13.7998 14.1942 13.7998 15.1999C13.7998 16.2056 12.9898 17.0285 11.9998 17.0285C11.0098 17.0285 10.1998 16.2056 10.1998 15.1999C10.1998 14.1942 11.0098 13.3713 11.9998 13.3713Z" stroke="#F2F4F6" stroke-width="2"/>
</g>
<defs>
<clipPath id="clip0_811_2987">
<rect width="24" height="24" fill="white"/>
</clipPath>
</defs>
</svg>

<svg width="24" height="24" viewBox="0 0 24 24" fill="none" xmlns="http://www.w3.org/2000/svg"><g clip-path="url(#clip0_811_2987)"><path d="M6.6 8.8v-.914C6.6 4.846 9.008 2.4 12 2.4c2.991 0 5.4 2.447 5.4 5.486V8.8m-10.8 0c-.99 0-1.8.823-1.8 1.829v9.142c0 1.006.81 1.829 1.8 1.829h10.8c.99 0 1.8-.823 1.8-1.829v-9.143c0-1.005-.81-1.828-1.8-1.828m-10.8 0h10.8M12 13.37c.99 0 1.8.823 1.8 1.829s-.81 1.829-1.8 1.829-1.8-.823-1.8-1.83c0-1.005.81-1.828 1.8-1.828z" stroke="#F2F4F6" stroke-width="2"/></g><defs><clipPath id="clip0_811_2987"><path fill="#fff" d="M0 0h24v24H0z"/></clipPath></defs></svg>
